X: 4978
T: Brendan Keenan's
R: jig
M: 6/8
K: Bminor
B|:FBB BAF A3 AFE|F2B BAF Bce f2B|
FBB BAF A3 ABc|1 d2f e2c B3 B2A:|2 d2f e2c B3 B2e||
|:fBf baf a3 afe|f3 baf a3 afe|
f2b baf e3 ABc|1 d2f e2c B3 B2e:|2 d2f e2c BBB B2A||

